src/components/content/Icon/distinctive/data.svg

<svg width="100" height="100" viewBox="0 0 100 100" fill="none" xmlns="http://www.w3.org/2000/svg">
<path d="M89.7394 69.4156C89.7394 62.7124 88.5155 56.7156 86.2947 52.5312C84.8999 49.9041 82.9499 47.6312 81.079 46.451C80.6186 46.1604 80.1342 45.9281 79.6655 45.7031C78.353 45.0729 77.1124 44.4781 76.2134 42.6468C75.6311 41.4614 75.1967 39.9697 74.7769 38.5281C74.3936 37.2114 73.9967 35.8499 73.479 34.6739C72.3103 32.0218 70.8624 29.8364 69.1738 28.1781C66.5051 25.5572 63.2884 23.9781 59.8717 23.6114C59.5645 23.5781 59.2645 23.5614 58.979 23.5614C54.604 23.5614 48.1884 27.1708 45.979 32.3489C45.9363 32.4489 45.8447 32.5281 45.7322 32.5604C45.6426 32.5864 45.5759 32.5729 45.553 32.5572C44.429 31.7885 42.3113 31.3281 40.9124 31.3281C38.4384 31.3281 35.3103 32.8718 32.7467 35.3572C29.8582 38.1572 28.0478 41.6968 27.6478 45.3229C27.6259 45.5197 27.5009 45.7302 27.4134 45.8166C27.3978 45.8322 27.377 45.8416 27.3551 45.8416C25.3592 45.8551 23.4145 46.4406 21.5738 47.5812C19.7415 48.7166 18.0988 50.3479 16.6936 52.4301C13.7395 56.8072 12.1113 62.8427 12.1113 69.4229C12.1113 69.5197 12.1499 69.6124 12.2186 69.6812C12.2874 69.7499 12.3801 69.7874 12.477 69.7874L89.3749 69.776C89.5728 69.776 89.7332 69.6177 89.7384 69.4218C89.7436 69.226 89.7384 69.4218 89.7384 69.4208V69.4114L89.7394 69.4156ZM27.429 66.5968C23.4811 66.5968 19.7561 66.8406 16.9405 67.2843C15.929 67.4437 14.7551 67.6624 13.8176 67.9895C13.7322 68.0197 13.6676 67.9083 13.7363 67.8489C15.7895 66.0999 21.152 64.8489 27.429 64.8489C27.4363 64.8489 28.1478 64.8322 28.3342 64.4729C28.4582 64.2343 29.1645 63.3947 33.0749 62.5874C35.5499 62.076 38.554 61.7593 40.9134 61.7593C42.2436 61.7593 44.2467 61.851 45.2957 62.0031C45.6051 62.0479 46.204 62.027 46.478 61.8906C48.5259 60.8687 54.7676 60.1052 58.9801 60.1052C59.2509 60.1052 59.5353 60.1083 59.8259 60.1156C63.1374 60.1906 66.2561 60.5166 68.8447 61.0583C70.4707 61.3979 71.8644 61.8458 72.9874 62.3885C73.4655 62.6197 73.828 62.8854 74.2124 63.1656C74.653 63.4874 75.1082 63.8208 75.7415 64.0947C76.7478 64.5312 78.1322 64.6729 79.4707 64.8093C79.9269 64.8562 80.3988 64.9041 80.8353 64.9624C82.627 65.2031 84.4967 65.6676 85.8363 66.2041C86.9374 66.6458 87.7717 67.1802 88.3082 67.776C88.3676 67.8416 88.2978 67.9416 88.2155 67.9083C87.6488 67.6749 86.9238 67.4687 86.0436 67.2927C84.6624 67.0166 82.7426 66.7781 80.9082 66.6552C80.4624 66.6249 79.9863 66.601 79.5259 66.5781C78.229 66.5124 76.8884 66.4437 75.9624 66.2437C75.3905 66.1197 74.9822 65.9708 74.5509 65.8135C74.1613 65.6718 73.7582 65.5239 73.2301 65.3968C72.0644 65.1156 70.6269 64.8854 68.9551 64.7114C66.3342 64.4385 63.1811 64.2739 59.8363 64.2354C59.5509 64.2322 59.2645 64.2301 58.978 64.2301C54.6957 64.2301 48.4051 64.6083 46.2249 65.151C46.1113 65.1791 45.6426 65.1999 45.3728 65.1801C44.2988 65.102 42.2613 65.0552 40.9124 65.0552C36.9686 65.0552 29.153 65.5666 27.8332 66.5458C27.8238 66.5531 27.8145 66.5572 27.803 66.5593C27.7207 66.576 27.5645 66.5968 27.428 66.5968H27.429ZM27.429 64.1197C22.1582 64.1197 16.654 65.0572 13.903 66.8343C13.8259 66.8843 13.7374 66.7895 13.7926 66.7156C14.5217 65.7229 15.6592 64.8229 17.1613 64.0697C19.9103 62.6916 23.5572 61.9322 27.4301 61.9322C27.7384 61.9322 28.2457 61.7406 28.3582 61.3947C29.1134 59.0791 36.0082 57.0187 40.9145 57.0187C42.2082 57.0187 44.2405 57.1656 45.2665 57.4041C45.5999 57.4812 46.2467 57.4447 46.5415 57.2104C48.577 55.5958 54.7863 54.3895 58.9801 54.3895C59.2488 54.3895 59.5322 54.3947 59.8217 54.4051C63.1217 54.5249 66.228 55.0406 68.8051 55.8979C70.4217 56.4354 71.8082 57.1427 72.9249 58.002C73.403 58.3697 73.7676 58.7927 74.1519 59.2406C74.5915 59.751 75.0457 60.2802 75.6811 60.7177C76.704 61.4218 78.0999 61.6489 79.4509 61.8687C79.9269 61.9458 80.3759 62.0187 80.8092 62.1114C82.5884 62.4916 84.4457 63.2249 85.777 64.0739C86.8332 64.7468 87.6478 65.5677 88.1957 66.4874C88.2415 66.5656 88.1499 66.652 88.077 66.5979C87.5415 66.1989 86.8822 65.8406 86.1082 65.5291C84.7155 64.9708 82.7811 64.4895 80.9332 64.2416C80.4853 64.1812 80.0072 64.1322 79.5457 64.0854C78.2624 63.9541 76.9353 63.8187 76.0322 63.427C75.4728 63.1843 75.0697 62.8895 74.6426 62.5781C74.2488 62.2906 73.8426 61.9937 73.304 61.7333C72.128 61.1645 70.677 60.6979 68.9926 60.3458C66.3613 59.7958 63.1967 59.4645 59.8405 59.3874C59.5447 59.3812 59.254 59.377 58.978 59.377C55.2603 59.377 48.554 60.0406 46.153 61.2385C46.0582 61.2802 45.6426 61.3176 45.3999 61.2833C44.3176 61.126 42.2686 61.0312 40.9124 61.0312C36.9249 61.0312 29.0082 62.0635 27.7436 64.0385C27.7342 64.0531 27.7207 64.0645 27.704 64.0708C27.6332 64.0947 27.5217 64.1208 27.428 64.1208L27.429 64.1197ZM14.079 65.2968C14.0103 65.3624 13.904 65.2791 13.9509 65.1958C14.6905 63.8656 15.7884 62.6624 17.2082 61.652C19.9457 59.7031 23.5749 58.6291 27.429 58.6291C27.7895 58.6291 28.277 58.3281 28.3655 57.9406C28.7249 56.3729 30.4707 54.7562 33.1551 53.5052C35.6082 52.3614 38.5801 51.651 40.9134 51.651C42.1988 51.651 44.2165 51.8583 45.2342 52.1926C45.5915 52.3093 46.279 52.2593 46.5874 51.9124C48.2613 50.026 53.9165 47.9166 58.979 47.9166C59.2457 47.9166 59.527 47.9239 59.8144 47.9385C63.1009 48.1083 66.1957 48.8385 68.7634 50.0499C70.3759 50.8114 71.7603 51.8156 72.8769 53.0354C73.3613 53.5635 73.727 54.1687 74.1155 54.8093C74.552 55.5291 75.0019 56.2739 75.6322 56.8895C76.6603 57.8958 78.0665 58.2208 79.4269 58.5343C79.9009 58.6437 80.3488 58.7468 80.779 58.8781C82.5499 59.4145 84.3999 60.4531 85.728 61.6562C86.6999 62.5364 87.4707 63.5937 88.0207 64.7791C88.0603 64.8635 87.9488 64.9374 87.8853 64.8697C87.4009 64.352 86.828 63.8781 86.1686 63.4583C84.7676 62.5645 82.8207 61.7947 80.9603 61.3979C80.5092 61.302 80.0301 61.2239 79.5665 61.1479C78.2957 60.9416 76.9811 60.7281 76.0936 60.1166C75.5363 59.7322 75.1322 59.2624 74.704 58.7645C74.3124 58.3083 73.9061 57.8374 73.3686 57.4239C72.1863 56.5156 70.728 55.7697 69.0342 55.2062C66.3915 54.3281 63.2155 53.7989 59.8467 53.677C59.5488 53.6666 59.2561 53.6604 58.979 53.6604C55.2478 53.6604 48.5155 54.7197 46.0978 56.6312C46.0936 56.6343 46.0905 56.6364 46.0863 56.6385C45.9895 56.6926 45.6322 56.7395 45.429 56.6926C44.3384 56.4395 42.2759 56.2885 40.9124 56.2885C36.3124 56.2885 28.7561 58.1999 27.6905 61.0895C27.6834 61.108 27.6702 61.1235 27.653 61.1333C27.5915 61.1666 27.4936 61.202 27.428 61.202C23.4436 61.202 19.6801 61.9885 16.8322 63.4166C15.7301 63.9697 14.8072 64.602 14.079 65.2958V65.2968ZM86.2176 61.1156C84.8134 59.8437 82.8592 58.7468 80.9905 58.1802C80.5363 58.0427 80.0551 57.9312 79.5905 57.8239C78.329 57.5322 77.0238 57.2312 76.1415 56.3687C75.578 55.8177 75.1707 55.1447 74.7394 54.4312C74.3499 53.7885 73.9478 53.1239 73.4145 52.5427C72.2332 51.2531 70.7728 50.1926 69.0738 49.3906C66.4217 48.1385 63.2322 47.3843 59.8509 47.2104C59.5499 47.1947 59.2561 47.1874 58.978 47.1874C56.8853 47.1874 54.2238 47.6124 51.8572 48.3239C49.1686 49.1333 47.1051 50.2333 46.0478 51.4208C46.0447 51.4249 46.0415 51.4281 46.0374 51.4312C45.954 51.4968 45.6311 51.5562 45.4613 51.4999C44.3613 51.1374 42.2842 50.9218 40.9134 50.9218C38.4811 50.9218 35.3905 51.6583 32.8478 52.8437C29.9342 54.202 28.0957 55.9406 27.6634 57.7437C27.6603 57.7552 27.6561 57.7656 27.6488 57.7749C27.6009 57.8291 27.4832 57.8989 27.429 57.8999C23.4249 57.8999 19.6447 59.0218 16.7853 61.0583C15.8342 61.7354 15.0197 62.4947 14.3478 63.3197C14.2863 63.3958 14.1676 63.3197 14.2092 63.2322C14.9447 61.6812 15.9645 60.2749 17.2457 59.0749C19.9759 56.5166 23.5926 55.1072 27.429 55.1072C27.8301 55.1072 28.2967 54.6937 28.3697 54.2718C28.7426 52.1364 30.4551 50.0354 33.1915 48.3562C35.6353 46.8572 38.5936 45.926 40.9124 45.926C42.1905 45.926 44.1936 46.1958 45.203 46.6333C45.6217 46.8135 46.3301 46.6947 46.6165 46.2708C47.5895 44.8291 49.5363 43.476 52.0978 42.4624C54.3915 41.5552 56.9634 41.0124 58.979 41.0124C59.2436 41.0124 59.5228 41.0218 59.8092 41.0416C63.0842 41.2635 66.1676 42.2208 68.727 43.8114C70.3395 44.8135 71.7259 46.1374 72.8467 47.7468C73.3363 48.4499 73.7228 49.2895 74.0967 50.0999C74.5301 51.0406 74.977 52.0124 75.5999 52.8135C76.6259 54.1343 78.0384 54.5635 79.404 54.9781C79.877 55.1218 80.3228 55.2572 80.7509 55.4281C82.5176 56.1322 84.3655 57.4989 85.6947 59.0822C86.5426 60.0927 87.2394 61.2801 87.7717 62.601C87.8082 62.6916 87.6863 62.7593 87.629 62.6812C87.2134 62.1127 86.7408 61.5881 86.2186 61.1156H86.2176ZM86.252 58.6135C84.8488 56.9416 82.8926 55.4979 81.0197 54.751C80.5624 54.5687 80.0801 54.4218 79.6144 54.2812C78.2999 53.8822 77.0592 53.5052 76.1749 52.3677C75.604 51.6333 75.1936 50.7406 74.7582 49.7958C74.3717 48.9552 73.9717 48.0864 73.4447 47.3302C72.2665 45.6385 70.8082 44.2468 69.1113 43.1916C66.4509 41.5395 63.2509 40.5437 59.8582 40.3145C59.5561 40.2937 59.2603 40.2833 58.979 40.2833C54.6259 40.2833 48.2301 42.5749 46.0124 45.8624C45.952 45.951 45.6363 46.0249 45.4926 45.9635C44.3832 45.4833 42.2936 45.1968 40.9134 45.1968C38.4676 45.1968 35.3624 46.1687 32.8113 47.7343C29.8936 49.5239 28.0613 51.801 27.652 54.1458C27.6395 54.2135 27.5124 54.3437 27.4353 54.3729C27.4269 54.3758 27.4181 54.3772 27.4092 54.377C23.3947 54.3822 19.6092 55.8604 16.7488 58.5416C15.8827 59.3524 15.119 60.2661 14.4749 61.2624C14.4207 61.3468 14.2926 61.2812 14.329 61.1874C15.0603 59.3083 16.0499 57.601 17.278 56.1364C20.0061 52.8812 23.6113 51.0885 27.4311 51.0885C27.878 51.0885 28.3124 50.5447 28.3738 50.0937C28.752 47.3343 30.4759 44.6312 33.228 42.4812C35.6645 40.5781 38.6103 39.3958 40.9155 39.3958C42.1842 39.3958 44.1728 39.7374 45.1749 40.2895C45.3988 40.4124 45.7051 40.4343 45.9936 40.3468C46.2842 40.2593 46.5134 40.0812 46.6384 39.8447C47.6165 37.9979 49.5665 36.2687 52.129 34.977C54.4145 33.8249 56.9759 33.1374 58.9801 33.1374C59.2426 33.1374 59.5197 33.1499 59.803 33.1739C63.0655 33.4552 66.1395 34.6718 68.6936 36.6927C70.3103 37.9718 71.7009 39.6645 72.827 41.7229C73.3217 42.6281 73.7103 43.702 74.0853 44.7406C74.5155 45.9312 74.9603 47.1624 75.5759 48.1718C76.5957 49.8437 78.0092 50.3906 79.377 50.9187C79.8488 51.101 80.2936 51.2729 80.7197 51.4895C82.4853 52.3864 84.3353 54.1291 85.6686 56.152C86.4634 57.3593 87.1269 58.7624 87.6478 60.3176C87.679 60.4124 87.5488 60.4718 87.4978 60.3854C87.1259 59.7499 86.7103 59.1572 86.252 58.6114V58.6135ZM17.053 68.0041C19.8332 67.5666 23.5176 67.326 27.429 67.326C27.5353 67.326 28.0738 67.3166 28.2634 67.1343C28.5009 66.9051 29.8947 66.5229 33.0384 66.1999C35.5249 65.9437 38.5426 65.7854 40.9134 65.7854C42.2499 65.7854 44.2645 65.8312 45.3217 65.9083C45.5947 65.9281 46.1655 65.9187 46.403 65.8593C48.5311 65.3291 54.7395 64.9604 58.9801 64.9604C59.2634 64.9604 59.5467 64.9624 59.8301 64.9656C63.153 65.0031 66.2832 65.1666 68.8822 65.4374C70.5217 65.6083 71.928 65.8333 73.0613 66.1072C73.5499 66.2249 73.9155 66.3583 74.303 66.4999C74.7384 66.6593 75.1895 66.8229 75.8103 66.9572C76.7936 67.1697 78.1645 67.2395 79.4905 67.3072C79.9478 67.3302 80.4217 67.3552 80.8613 67.3843C82.6655 67.5051 84.5509 67.7385 85.9019 68.0093C87.2769 68.2843 88.1207 68.6072 88.5759 68.8999C88.6447 68.9447 88.6124 69.052 88.5301 69.052L13.5322 69.0624C13.4436 69.0624 13.4165 68.9426 13.4967 68.9051C14.0592 68.6406 15.1061 68.3114 17.054 68.0051L17.053 68.0041ZM17.2988 52.8416C20.027 48.7999 23.6249 46.5739 27.429 46.5739C27.927 46.5739 28.3207 45.8822 28.3728 45.4062C28.754 41.9479 30.4884 38.5666 33.2551 35.8833C35.6874 33.5249 38.6217 32.0593 40.9134 32.0593C42.1728 32.0593 44.1478 32.4802 45.1426 33.1614C45.3603 33.3093 45.6499 33.3468 45.9374 33.2624C46.2613 33.1677 46.5207 32.9395 46.6499 32.6374C47.6342 30.3302 49.5905 28.1749 52.1572 26.5687C54.4353 25.1437 56.9863 24.2927 58.979 24.2927C59.2384 24.2927 59.5134 24.3083 59.7947 24.3385C63.0457 24.6864 66.1124 26.1947 68.6634 28.6999C70.2853 30.2926 71.6811 32.402 72.8124 34.9687C73.3113 36.101 73.7009 37.4385 74.078 38.7333C74.5061 40.2052 74.9499 41.7281 75.5603 42.9697C76.5707 45.027 77.9842 45.7052 79.352 46.3614C79.8228 46.5874 80.2665 46.7999 80.6915 47.0687C82.4603 48.1833 84.3145 50.3531 85.6519 52.8739C86.3874 54.2583 87.0103 55.8499 87.5124 57.6062C87.5405 57.7031 87.4019 57.7562 87.3582 57.6656C87.0301 56.9864 86.6697 56.3479 86.278 55.7531C84.878 53.6291 82.9249 51.7926 81.0509 50.8416C80.5915 50.6083 80.1082 50.4218 79.6405 50.2406C78.328 49.7333 77.0894 49.2541 76.1988 47.7937C75.6217 46.8468 75.1894 45.651 74.7707 44.4937C74.3863 43.4291 73.9884 42.3281 73.4665 41.3739C72.2936 39.2291 70.8394 37.4614 69.1457 36.1218C66.4801 34.0124 63.2707 32.7427 59.8655 32.4489C59.5613 32.4229 59.2634 32.4093 58.9801 32.4093C54.6145 32.4093 48.2082 35.3229 45.9936 39.5041C45.9624 39.5645 45.8811 39.6197 45.7832 39.6489C45.6603 39.6854 45.5592 39.6697 45.5249 39.651C44.4082 39.0354 42.304 38.6666 40.9145 38.6666C38.4551 38.6666 35.3374 39.9083 32.778 41.9072C29.8749 44.1749 28.054 47.0468 27.6509 49.9947C27.6322 50.1312 27.5051 50.2926 27.427 50.3468C27.4145 50.3551 27.3999 50.3583 27.3853 50.3583C23.3634 50.3729 19.577 52.2562 16.7197 55.6676C15.9217 56.6197 15.2197 57.6697 14.6207 58.7989C14.5728 58.8885 14.4363 58.8312 14.4686 58.7343C15.1895 56.551 16.1395 54.5635 17.3009 52.8416H17.2988Z" fill="#0B301A"/>
</svg>

<svg xmlns="http://www.w3.org/2000/svg" width="100" height="100" fill="none" viewBox="0 0 100 100"><path fill="#0b301a" d="M89.74 69.416c0-6.704-1.224-12.7-3.445-16.885-1.395-2.627-3.345-4.9-5.216-6.08-.46-.29-.945-.523-1.413-.748-1.313-.63-2.554-1.225-3.453-3.056-.582-1.186-1.016-2.677-1.436-4.119-.383-1.317-.78-2.678-1.298-3.854-1.169-2.652-2.617-4.838-4.305-6.496-2.669-2.62-5.886-4.2-9.302-4.567a8 8 0 0 0-.893-.05c-4.375 0-10.79 3.61-13 8.788a.38.38 0 0 1-.247.211c-.09.026-.156.013-.179-.003-1.124-.769-3.242-1.229-4.64-1.229-2.475 0-5.603 1.544-8.166 4.03-2.889 2.8-4.7 6.339-5.1 9.965a.95.95 0 0 1-.234.494.08.08 0 0 1-.058.025c-1.996.013-3.94.599-5.781 1.74-1.833 1.135-3.475 2.766-4.88 4.848-2.954 4.377-4.583 10.413-4.583 16.993a.365.365 0 0 0 .366.364l76.898-.011a.364.364 0 0 0 .363-.354c.006-.196 0 0 0-.001v-.01zm-62.311-2.82c-3.948 0-7.673.245-10.488.688-1.012.16-2.186.378-3.123.706-.086.03-.15-.082-.082-.141 2.053-1.75 7.416-3 13.693-3 .007 0 .719-.017.905-.376.124-.239.83-1.078 4.74-1.886 2.476-.511 5.48-.828 7.84-.828 1.33 0 3.333.092 4.382.244.31.045.908.024 1.182-.112 2.048-1.022 8.29-1.786 12.502-1.786.27 0 .555.003.846.01 3.311.076 6.43.402 9.019.943 1.626.34 3.02.788 4.142 1.33.479.232.841.497 1.225.778.441.321.896.655 1.53.929 1.006.436 2.39.578 3.729.714.456.047.928.095 1.364.153 1.792.241 3.662.706 5.001 1.242 1.101.442 1.936.976 2.472 1.572.06.066-.01.166-.093.132q-.85-.351-2.171-.615c-1.382-.276-3.301-.515-5.136-.638-.446-.03-.922-.054-1.382-.077-1.297-.066-2.638-.134-3.564-.334a10 10 0 0 1-1.411-.43c-.39-.142-.793-.29-1.32-.417-1.167-.281-2.604-.512-4.276-.686-2.62-.272-5.774-.437-9.119-.476a77 77 0 0 0-.858-.005c-4.282 0-10.573.378-12.753.921-.114.028-.582.049-.852.03-1.074-.079-3.112-.126-4.46-.126-3.944 0-11.76.512-13.08 1.49a.1.1 0 0 1-.03.014 2 2 0 0 1-.375.038zm0-2.476c-5.27 0-10.775.937-13.526 2.714-.077.05-.166-.044-.11-.118.729-.993 1.866-1.893 3.368-2.646 2.75-1.378 6.396-2.138 10.27-2.138.307 0 .815-.191.927-.537.755-2.316 7.65-4.376 12.556-4.376 1.294 0 3.326.147 4.352.385.334.077.98.04 1.276-.194 2.035-1.614 8.244-2.82 12.438-2.82q.405 0 .842.015c3.3.12 6.406.636 8.983 1.493 1.617.537 3.003 1.245 4.12 2.104.478.368.843.79 1.227 1.239.44.51.894 1.04 1.53 1.477 1.022.704 2.418.93 3.769 1.15.476.078.925.15 1.358.243 1.78.38 3.637 1.114 4.968 1.963 1.056.673 1.87 1.494 2.419 2.413.046.079-.046.165-.119.11-.535-.398-1.195-.756-1.969-1.068-1.392-.558-3.327-1.04-5.175-1.287a43 43 0 0 0-1.387-.157c-1.284-.13-2.61-.266-3.514-.658-.56-.243-.962-.538-1.39-.849-.393-.287-.8-.584-1.338-.845-1.176-.569-2.627-1.035-4.311-1.387-2.632-.55-5.796-.881-9.152-.959-.296-.006-.587-.01-.863-.01-3.718 0-10.424.664-12.825 1.861-.095.042-.51.08-.753.045-1.082-.157-3.131-.252-4.488-.252-3.987 0-11.904 1.032-13.168 3.008a.1.1 0 0 1-.04.032 1 1 0 0 1-.276.05zm-13.35 1.177c-.069.065-.175-.018-.128-.101.74-1.33 1.837-2.534 3.257-3.544 2.738-1.949 6.367-3.023 10.221-3.023.36 0 .848-.3.937-.688.359-1.568 2.105-3.185 4.79-4.436 2.452-1.144 5.424-1.854 7.757-1.854 1.286 0 3.304.207 4.321.542.358.116 1.045.066 1.353-.28 1.674-1.887 7.33-3.996 12.392-3.996.267 0 .548.007.835.021 3.287.17 6.382.9 8.95 2.112 1.612.761 2.996 1.766 4.113 2.985.484.529.85 1.134 1.239 1.774.436.72.886 1.465 1.516 2.08 1.028 1.007 2.435 1.332 3.795 1.645.474.11.922.213 1.352.344 1.77.536 3.62 1.575 4.949 2.778a9.7 9.7 0 0 1 2.293 3.123c.04.085-.072.158-.136.09a8.9 8.9 0 0 0-1.716-1.41c-1.401-.895-3.348-1.664-5.209-2.061-.45-.096-.93-.174-1.393-.25-1.271-.206-2.586-.42-3.473-1.031-.558-.385-.962-.855-1.39-1.352-.392-.457-.798-.928-1.335-1.341-1.183-.908-2.641-1.654-4.335-2.218-2.643-.878-5.819-1.407-9.187-1.529-.298-.01-.59-.017-.868-.017-3.731 0-10.463 1.06-12.881 2.971l-.012.008c-.096.054-.454.1-.657.054-1.09-.253-3.153-.404-4.517-.404-4.6 0-12.156 1.91-13.221 4.8a.1.1 0 0 1-.038.044.6.6 0 0 1-.225.069c-3.984 0-7.748.787-10.596 2.215-1.102.553-2.025 1.185-2.753 1.879m72.139-4.181c-1.405-1.272-3.359-2.37-5.228-2.936a22 22 0 0 0-1.4-.356c-1.261-.292-2.566-.593-3.449-1.455-.563-.551-.97-1.224-1.402-1.938-.39-.642-.791-1.307-1.325-1.888-1.18-1.29-2.641-2.35-4.34-3.152-2.652-1.252-5.842-2.007-9.223-2.18a17 17 0 0 0-.873-.024c-2.093 0-4.754.425-7.12 1.137-2.69.81-4.753 1.91-5.81 3.097l-.01.01c-.084.066-.407.125-.577.069-1.1-.363-3.177-.578-4.548-.578-2.432 0-5.522.736-8.065 1.922-2.914 1.358-4.752 3.097-5.185 4.9a.1.1 0 0 1-.014.03c-.048.055-.166.125-.22.126-4.004 0-7.784 1.122-10.644 3.158a12.4 12.4 0 0 0-2.437 2.262c-.062.076-.18 0-.139-.088a13.8 13.8 0 0 1 3.037-4.157c2.73-2.558 6.347-3.968 10.183-3.968.401 0 .868-.413.94-.835.374-2.136 2.086-4.237 4.822-5.916 2.444-1.499 5.403-2.43 7.721-2.43 1.279 0 3.282.27 4.291.707.419.18 1.127.062 1.413-.362.974-1.442 2.92-2.795 5.482-3.809 2.294-.907 4.865-1.45 6.881-1.45q.4 0 .83.03c3.275.221 6.359 1.179 8.918 2.77a14 14 0 0 1 4.12 3.935c.49.703.876 1.542 1.25 2.353.433.94.88 1.912 1.503 2.713 1.026 1.321 2.438 1.75 3.804 2.165.473.144.919.28 1.347.45 1.767.704 3.614 2.07 4.944 3.654.848 1.01 1.544 2.198 2.077 3.519.036.09-.086.158-.143.08a10.3 10.3 0 0 0-1.41-1.565zm.034-2.502c-1.403-1.672-3.36-3.116-5.232-3.863-.458-.182-.94-.33-1.406-.47-1.314-.399-2.555-.776-3.44-1.913-.57-.735-.98-1.627-1.416-2.572-.386-.84-.786-1.71-1.313-2.466a14.8 14.8 0 0 0-4.334-4.138c-2.66-1.653-5.86-2.648-9.253-2.877-.302-.021-.598-.032-.879-.032-4.353 0-10.749 2.292-12.967 5.58-.06.088-.376.162-.52.1-1.109-.48-3.198-.766-4.579-.766-2.445 0-5.55.972-8.102 2.537-2.917 1.79-4.75 4.067-5.159 6.412-.012.068-.14.198-.217.227a.1.1 0 0 1-.026.004c-4.014.005-7.8 1.483-10.66 4.165-.866.81-1.63 1.724-2.274 2.72-.054.085-.182.02-.146-.075.731-1.879 1.72-3.586 2.949-5.05 2.728-3.256 6.333-5.048 10.153-5.048.447 0 .881-.544.943-.995.378-2.76 2.102-5.463 4.854-7.613 2.436-1.903 5.382-3.085 7.688-3.085 1.268 0 3.257.341 4.259.893.224.123.53.145.819.058.29-.088.52-.266.644-.502.979-1.847 2.928-3.576 5.491-4.868 2.285-1.152 4.847-1.84 6.851-1.84q.396 0 .823.037a16.6 16.6 0 0 1 8.89 3.519c1.617 1.279 3.008 2.971 4.134 5.03.495.905.883 1.979 1.258 3.018.43 1.19.875 2.421 1.49 3.43 1.02 1.673 2.434 2.22 3.802 2.748.472.182.917.354 1.343.57 1.765.897 3.615 2.64 4.949 4.663.794 1.207 1.458 2.61 1.979 4.166.031.094-.1.154-.15.067a13 13 0 0 0-1.246-1.774zm-69.199 9.39c2.78-.437 6.465-.678 10.376-.678.106 0 .645-.01.834-.192.238-.229 1.632-.611 4.775-.934a83 83 0 0 1 7.875-.415c1.337 0 3.352.046 4.409.123.273.02.843.01 1.081-.049 2.128-.53 8.337-.899 12.577-.899q.425 0 .85.006c3.323.037 6.453.2 9.052.471 1.64.171 3.046.396 4.18.67.488.118.853.251 1.241.393.435.16.886.323 1.507.457.984.213 2.355.283 3.68.35.458.023.932.048 1.371.077 1.804.121 3.69.355 5.04.625 1.376.275 2.22.598 2.675.89.069.046.036.153-.046.153l-74.998.01c-.088 0-.116-.12-.035-.157.562-.264 1.61-.594 3.557-.9zm.246-15.162c2.728-4.042 6.326-6.268 10.13-6.268.498 0 .892-.692.944-1.168.381-3.458 2.115-6.84 4.882-9.523 2.432-2.358 5.367-3.824 7.658-3.824 1.26 0 3.235.421 4.23 1.102a.94.94 0 0 0 .794.101c.324-.094.584-.322.713-.625.984-2.307 2.94-4.462 5.507-6.068 2.278-1.425 4.83-2.276 6.822-2.276q.391 0 .816.046c3.25.347 6.317 1.856 8.868 4.36 1.622 1.594 3.018 3.703 4.15 6.27.498 1.132.888 2.47 1.265 3.764.428 1.472.872 2.995 1.482 4.237 1.01 2.057 2.424 2.735 3.792 3.391.47.226.914.439 1.34.708 1.768 1.114 3.623 3.284 4.96 5.805.735 1.384 1.358 2.976 1.86 4.732.028.097-.11.15-.154.06a17 17 0 0 0-1.08-1.913c-1.4-2.124-3.353-3.96-5.227-4.911-.46-.234-.943-.42-1.41-.601-1.313-.508-2.552-.987-3.442-2.447-.577-.947-1.01-2.143-1.428-3.3-.385-1.065-.783-2.166-1.305-3.12-1.172-2.145-2.627-3.913-4.32-5.252a17.3 17.3 0 0 0-9.28-3.673c-.305-.026-.603-.04-.886-.04-4.365 0-10.772 2.914-12.986 7.095-.032.06-.113.116-.21.145-.124.036-.225.02-.26.002-1.116-.616-3.22-.984-4.61-.984-2.459 0-5.577 1.241-8.136 3.24-2.903 2.268-4.724 5.14-5.127 8.088a.63.63 0 0 1-.224.352.1.1 0 0 1-.042.011c-4.022.015-7.808 1.898-10.665 5.31-.798.952-1.5 2.002-2.1 3.13-.047.09-.184.033-.151-.064.72-2.183 1.67-4.17 2.832-5.892z"/></svg>
